**harm	**harte	**silbe	**rhyme	**timestamp	**phrase	**leadinstrument	**kern
*M4/4	*M4/4	*	*	*	*	*	*
*	*	*	*	*	*	*	*
*	*	*	*	*	*	*	*
*E:	*E:	*	*	*E:	*E:	*E:	*E:
*	*	*	*	*	*	*	*
*	*	*	*	*	*	*	*
1r;	N	.	.	0	.	r	1r;
=1	=1	=1	=1	=1	=1	=1	=1
*>Letter>A2	*>Letter>A2	*>Letter>A2	*>Letter>A2	*>Letter>A2	*>Letter>A2	*>Letter>A2	*>Letter>A2
*>Label>Intro	*>Label>Intro	*>Label>Intro	*>Label>Intro	*>Label>Intro	*>Label>Intro	*>Label>Intro	*>Label>Intro
1I	E:maj	.	.	0.728	newline	guitar	1E 1g# 1b
=2	=2	=2	=2	=2	=2	=2	=2
2V	B:maj	.	.	2.463	.	guitar	1B 1dd# 1ff#
2IV	A:maj	.	.	3.33	.	guitar	2A 2cc# 2ee
=3	=3	=3	=3	=3	=3	=3	=3
1I	E:maj	.	.	4.197	.	guitar	1E 1g# 1b
=4	=4	=4	=4	=4	=4	=4	=4
2V	B:maj	.	.	5.932	.	guitar	2B 2dd# 2ff#
2IV	A:maj	.	.	6.799	.	guitar	2A 2cc# 2ee
.	.	The	.	.	.	.	.
=5	=5	=5	=5	=5	=5	=5	=5
*>Letter>A	*>Letter>A	*>Letter>A	*>Letter>A	*>Letter>A	*>Letter>A	*>Letter>A	*>Letter>A
*>Label>Chorus	*>Label>Chorus	*>Label>Chorus	*>Label>Chorus	*>Label>Chorus	*>Label>Chorus	*>Label>Chorus	*>Label>Chorus
1I	E:maj	dream	.	7.667	newline	voice	1E 1g# 1b
.	.	po-	.	.	.	.	.
.	.	-lice.	.	.	.	.	.
.	.	they	.	.	.	.	.
.	.	live	.	.	.	.	.
.	.	in-	.	.	.	.	.
=6	=6	=6	=6	=6	=6	=6	=6
2V	B:maj	-side	.	9.42	.	voice	3...B 3...dd# 3...ff#
.	.	_	.	.	.	.	.
.	.	of	.	.	.	.	.
.	.	my	.	.	.	.	.
.	.	head.	A	.	.	.	.
2IV	A:maj	.	.	10.297	.	voice	4.A 4.cc# 4.ee
.	.	.	.	.	.	.	.
.	.	.	.	.	.	.	.
.	.	The	.	.	.	.	.
=7	=7	=7	=7	=7	=7	=7	=7
1I	E:maj	dream	.	11.174	.	voice	1E 1g# 1b
.	.	po-	.	.	.	.	.
.	.	-lice.	.	.	.	.	.
.	.	they	.	.	.	.	.
.	.	come	.	.	.	.	.
.	.	to	.	.	.	.	.
=8	=8	=8	=8	=8	=8	=8	=8
2V	B:maj	me	.	12.928	.	voice	3...B 3...dd# 3...ff#
.	.	_	.	.	.	.	.
.	.	in	.	.	.	.	.
.	.	my	.	.	.	.	.
.	.	bed.	A	.	.	.	.
2IV	A:maj	.	.	13.805	.	voice	4.A 4.cc# 4.ee
.	.	.	.	.	.	.	.
.	.	.	.	.	.	.	.
.	.	The	.	.	.	.	.
=9	=9	=9	=9	=9	=9	=9	=9
1I	E:maj	dream	.	14.682	newline	voice	1E 1g# 1b
.	.	po-	.	.	.	.	.
.	.	-lice.	.	.	.	.	.
.	.	they're	.	.	.	.	.
.	.	co-	.	.	.	.	.
.	.	-ming	.	.	.	.	.
=10	=10	=10	=10	=10	=10	=10	=10
2V	B:maj	to	.	16.444	.	voice	2B 2dd# 2ff#
.	.	_	.	.	.	.	.
.	.	a-	.	.	.	.	.
.	.	-rrest	A	.	.	.	.
2IV	A:maj	me.	.	17.325	.	voice	2A 2cc# 2ee
.	.	Oh	.	.	.	.	.
=11	=11	=11	=11	=11	=11	=11	=11
1I	E:maj	no.	.	18.207	.	voice	1E 1g# 1b
.	.	.	.	.	.	.	.
=12	=12	=12	=12	=12	=12	=12	=12
1I	E:maj	.	.	19.969	.	voice	1E 1g# 1b
.	.	.	.	.	.	.	.
.	.	You	.	.	.	.	.
.	.	know	.	.	.	.	.
.	.	that	.	.	.	.	.
=13	=13	=13	=13	=13	=13	=13	=13
*>Letter>B	*>Letter>B	*>Letter>B	*>Letter>B	*>Letter>B	*>Letter>B	*>Letter>B	*>Letter>B
*>Label>Verse	*>Label>Verse	*>Label>Verse	*>Label>Verse	*>Label>Verse	*>Label>Verse	*>Label>Verse	*>Label>Verse
2ii	F#:min	talk	B	21.732	newline	voice	2F# 2a 2cc#
.	.	.	.	.	.	.	.
2vi	C#:min	is	.	22.615	.	voice	2C# 2e 2g#
=14	=14	=14	=14	=14	=14	=14	=14
2-VII	D:maj	cheap;	C	23.498	.	voice	2D 2f# 2a
.	.	.	.	.	.	.	.
2IV	A:maj	and	.	24.381	.	voice	2A 2cc# 2ee
.	.	those	.	.	.	.	.
=15	=15	=15	=15	=15	=15	=15	=15
2vi	C#:min	ru-	.	25.264	.	voice	3...C# 3...e 3...g#
.	.	-mors	.	.	.	.	.
.	.	ain't	.	.	.	.	.
.	.	nice;	D	.	.	.	.
2III	G#:maj	.	.	26.146	.	voice	4.G# 4.b# 4.dd#
.	.	.	.	.	.	.	.
.	.	.	.	.	.	.	.
=16	=16	=16	=16	=16	=16	=16	=16
4I	E:maj	.	.	27.029	.	voice	2E 2g# 2b
2.V	B:maj	.	.	27.471	.	voice	2B 2dd# 2ff#
.	.	.	.	.	.	.	.
.	.	And	.	.	.	.	.
.	.	when	.	.	.	.	.
.	.	I	.	.	.	.	.
=17	=17	=17	=17	=17	=17	=17	=17
2ii	F#:min	fall	B	28.795	newline	voice	2F# 2a 2cc#
.	.	.	.	.	.	.	.
2vi	C#:min	a-	.	29.676	.	voice	2C# 2e 2g#
=18	=18	=18	=18	=18	=18	=18	=18
2-VII	D:maj	-sleep.	C	30.557	.	voice	2D 2f# 2a
.	.	.	.	.	.	.	.
2IV	A:maj	I	.	31.438	.	voice	2A 2cc# 2ee
.	.	don't	.	.	.	.	.
=19	=19	=19	=19	=19	=19	=19	=19
2vi	C#:min	think	.	32.318	.	voice	3...C# 3...e 3...g#
.	.	I'll	.	.	.	.	.
.	.	sur-	.	.	.	.	.
.	.	-vive	D	.	.	.	.
2III	G#:maj	.	.	33.199	.	voice	4.G# 4.b# 4.dd#
.	.	.	.	.	.	.	.
.	.	.	.	.	.	.	.
.	.	the	.	.	.	.	.
=20	=20	=20	=20	=20	=20	=20	=20
4I	E:maj	_	.	34.08	.	voice	2E 2g# 2b
.	.	night	C	.	.	.	.
2.V	B:maj	.	.	34.52	.	voice	2B 2dd# 2ff#
.	.	_	.	.	.	.	.
.	.	.	.	.	.	.	.
.	.	.	.	.	.	.	.
.	.	The	.	.	.	.	.
=21	=21	=21	=21	=21	=21	=21	=21
4I	E:maj	_	.	35.841	.	voice	2E 2g# 2b
.	.	night.	C	.	.	.	.
2.V	B:maj	.	.	36.282	.	voice	2B 2dd# 2ff#
.	.	.	.	.	.	.	.
.	.	'Cause	.	.	.	.	.
.	.	they're	.	.	.	.	.
=22	=22	=22	=22	=22	=22	=22	=22
*>Letter>C	*>Letter>C	*>Letter>C	*>Letter>C	*>Letter>C	*>Letter>C	*>Letter>C	*>Letter>C
*>Label>Prechorus	*>Label>Prechorus	*>Label>Prechorus	*>Label>Prechorus	*>Label>Prechorus	*>Label>Prechorus	*>Label>Prechorus	*>Label>Prechorus
1I	E:maj	wai-	.	37.603	newline	voice	1E 1g# 1b
.	.	-ting	.	.	.	.	.
.	.	for	.	.	.	.	.
.	.	me.	.	.	.	.	.
.	.	.	.	.	.	.	.
.	.	.	.	.	.	.	.
.	.	They're	.	.	.	.	.
=23	=23	=23	=23	=23	=23	=23	=23
1I	E:maj	loo-	.	39.324	.	voice	1E 1g# 1b
.	.	-king	.	.	.	.	.
.	.	for	.	.	.	.	.
.	.	me.	.	.	.	.	.
.	.	.	.	.	.	.	.
.	.	.	.	.	.	.	.
=24	=24	=24	=24	=24	=24	=24	=24
1I	E:maj	eve-	.	41.045	.	voice	1E 1g# 1b
.	.	-ry	.	.	.	.	.
.	.	sin-	.	.	.	.	.
=25	=25	=25	=25	=25	=25	=25	=25
1I	E:maj	_	.	42.766	.	voice	1E 1g# 1b
.	.	-gle	.	.	.	.	.
.	.	night:	.	.	.	.	.
.	.	they're	.	.	.	.	.
=26	=26	=26	=26	=26	=26	=26	=26
2I	E:maj	dri-	.	44.487	newline	voice	2E 2g# 2b
2-VII	D:maj	-ving	.	45.352	.	voice	2D 2f# 2a
=27	=27	=27	=27	=27	=27	=27	=27
2-VI	C:maj	me	.	46.218	.	voice	2C 2e 2g
2-IIIb	G:maj/3	in-	.	47.084	.	voice	2g 2B 2dd
=28	=28	=28	=28	=28	=28	=28	=28
1IV	A:maj	-sane.	E	47.949	.	voice	1A 1cc# 1ee
=29	=29	=29	=29	=29	=29	=29	=29
1IV	A:maj	_	.	49.68	.	voice	1A 1cc# 1ee
.	.	.	.	.	.	.	.
.	.	.	.	.	.	.	.
.	.	Those	.	.	.	.	.
=30	=30	=30	=30	=30	=30	=30	=30
2i	E:min	men	.	51.412	newline	voice	2E 2g 2b
2-VII	D:maj	in-	.	52.279	.	voice	2D 2f# 2a
=31	=31	=31	=31	=31	=31	=31	=31
2-VI	C:maj	-side	.	53.146	.	voice	2C 2e 2g
2-IIIb	G:maj/3	my	.	54.014	.	voice	2g 2B 2dd
.	.	.	.	.	.	.	.
=32	=32	=32	=32	=32	=32	=32	=32
1V	B:maj	brain.	E	54.881	.	voice	1B 1dd# 1ff#
=33	=33	=33	=33	=33	=33	=33	=33
1V	B:maj	_	.	56.616	.	voice	1B 1dd# 1ff#
.	.	.	.	.	.	.	.
.	.	The	.	.	.	.	.
=34	=34	=34	=34	=34	=34	=34	=34
*>Letter>A	*>Letter>A	*>Letter>A	*>Letter>A	*>Letter>A	*>Letter>A	*>Letter>A	*>Letter>A
*>Label>Chorus	*>Label>Chorus	*>Label>Chorus	*>Label>Chorus	*>Label>Chorus	*>Label>Chorus	*>Label>Chorus	*>Label>Chorus
1I	E:maj	dream	.	58.351	newline	voice	1E 1g# 1b
.	.	po-	.	.	.	.	.
.	.	-lice.	.	.	.	.	.
.	.	they	.	.	.	.	.
.	.	live	.	.	.	.	.
.	.	in-	.	.	.	.	.
=35	=35	=35	=35	=35	=35	=35	=35
2V	B:maj	-side	.	60.1	.	voice	3...B 3...dd# 3...ff#
.	.	_	.	.	.	.	.
.	.	of	.	.	.	.	.
.	.	my	.	.	.	.	.
.	.	head.	A	.	.	.	.
2IV	A:maj	.	.	60.975	.	voice	4.A 4.cc# 4.ee
.	.	.	.	.	.	.	.
.	.	.	.	.	.	.	.
.	.	The	.	.	.	.	.
=36	=36	=36	=36	=36	=36	=36	=36
1I	E:maj	dream	.	61.85	.	voice	1E 1g# 1b
.	.	po-	.	.	.	.	.
.	.	-lice.	.	.	.	.	.
.	.	they	.	.	.	.	.
.	.	come	.	.	.	.	.
.	.	to	.	.	.	.	.
=37	=37	=37	=37	=37	=37	=37	=37
2V	B:maj	me	.	63.599	.	voice	3...B 3...dd# 3...ff#
.	.	_	.	.	.	.	.
.	.	in	.	.	.	.	.
.	.	my	.	.	.	.	.
.	.	bed.	A	.	.	.	.
2IV	A:maj	.	.	64.474	.	voice	4.A 4.cc# 4.ee
.	.	.	.	.	.	.	.
.	.	.	.	.	.	.	.
.	.	The	.	.	.	.	.
=38	=38	=38	=38	=38	=38	=38	=38
1I	E:maj	dream	.	65.349	newline	voice	1E 1g# 1b
.	.	po-	.	.	.	.	.
.	.	-lice.	.	.	.	.	.
.	.	they're	.	.	.	.	.
.	.	co-	.	.	.	.	.
.	.	-ming	.	.	.	.	.
=39	=39	=39	=39	=39	=39	=39	=39
2V	B:maj	to	.	67.094	.	voice	2B 2dd# 2ff#
.	.	_	.	.	.	.	.
.	.	a-	.	.	.	.	.
.	.	-rrest	A	.	.	.	.
2IV	A:maj	me.	.	67.967	.	voice	2A 2cc# 2ee
.	.	Oh	.	.	.	.	.
=40	=40	=40	=40	=40	=40	=40	=40
1I	E:maj	no.	.	68.84	.	voice	1E 1g# 1b
.	.	.	.	.	.	.	.
=41	=41	=41	=41	=41	=41	=41	=41
1I	E:maj	.	.	70.586	.	voice	1E 1g# 1b
.	.	.	.	.	.	.	.
.	.	Well	.	.	.	.	.
.	.	I	.	.	.	.	.
=42	=42	=42	=42	=42	=42	=42	=42
*>Letter>B	*>Letter>B	*>Letter>B	*>Letter>B	*>Letter>B	*>Letter>B	*>Letter>B	*>Letter>B
*>Label>Verse	*>Label>Verse	*>Label>Verse	*>Label>Verse	*>Label>Verse	*>Label>Verse	*>Label>Verse	*>Label>Verse
2ii	F#:min	can't	.	72.332	newline	voice	2F# 2a 2cc#
.	.	.	.	.	.	.	.
2vi	C#:min	tell	.	73.209	.	voice	2C# 2e 2g#
.	.	.	.	.	.	.	.
=43	=43	=43	=43	=43	=43	=43	=43
2-VII	D:maj	lies|	.	74.087	.	voice	2D 2f# 2a
.	.	.	.	.	.	.	.
2IV	A:maj	'cause	.	74.965	.	voice	2A 2cc# 2ee
.	.	they're	.	.	.	.	.
=44	=44	=44	=44	=44	=44	=44	=44
2vi	C#:min	liste-	.	75.842	.	voice	3...C# 3...e 3...g#
.	.	-ning	.	.	.	.	.
.	.	to	.	.	.	.	.
.	.	me;	C	.	.	.	.
2III	G#:maj	.	.	76.72	.	voice	4.G# 4.b# 4.dd#
.	.	.	.	.	.	.	.
.	.	.	.	.	.	.	.
=45	=45	=45	=45	=45	=45	=45	=45
4I	E:maj	.	.	77.597	.	voice	2E 2g# 2b
2.V	B:maj	.	.	78.036	.	voice	2B 2dd# 2ff#
.	.	.	.	.	.	.	.
.	.	And	.	.	.	.	.
.	.	when	.	.	.	.	.
.	.	I	.	.	.	.	.
=46	=46	=46	=46	=46	=46	=46	=46
2ii	F#:min	fall	.	79.352	newline	voice	2F# 2a 2cc#
.	.	.	.	.	.	.	.
2vi	C#:min	a-	.	80.221	.	voice	2C# 2e 2g#
.	.	.	.	.	.	.	.
=47	=47	=47	=47	=47	=47	=47	=47
2-VII	D:maj	-sleep:	C	81.09	.	voice	2D 2f# 2a
.	.	.	.	.	.	.	.
2IV	A:maj	bet	.	81.96	.	voice	2A 2cc# 2ee
.	.	they're	.	.	.	.	.
=48	=48	=48	=48	=48	=48	=48	=48
2vi	C#:min	spy-	.	82.829	.	voice	3...C# 3...e 3...g#
.	.	-ing	.	.	.	.	.
.	.	on	.	.	.	.	.
.	.	me	C	.	.	.	.
2III	G#:maj	.	.	83.698	.	voice	4.G# 4.b# 4.dd#
.	.	.	.	.	.	.	.
.	.	.	.	.	.	.	.
.	.	to-	.	.	.	.	.
=49	=49	=49	=49	=49	=49	=49	=49
4I	E:maj	_	.	84.567	.	voice	2E 2g# 2b
.	.	-night	.	.	.	.	.
2.V	B:maj	.	.	85.002	.	voice	2B 2dd# 2ff#
.	.	_	.	.	.	.	.
.	.	.	.	.	.	.	.
.	.	.	.	.	.	.	.
.	.	to-	.	.	.	.	.
=50	=50	=50	=50	=50	=50	=50	=50
4I	E:maj	_	.	86.305	.	voice	2E 2g# 2b
.	.	-night.	.	.	.	.	.
2.V	B:maj	.	.	86.74	.	voice	2B 2dd# 2ff#
.	.	.	.	.	.	.	.
.	.	'Cause	.	.	.	.	.
.	.	they're	.	.	.	.	.
=51	=51	=51	=51	=51	=51	=51	=51
*>Letter>C	*>Letter>C	*>Letter>C	*>Letter>C	*>Letter>C	*>Letter>C	*>Letter>C	*>Letter>C
*>Label>Prechorus	*>Label>Prechorus	*>Label>Prechorus	*>Label>Prechorus	*>Label>Prechorus	*>Label>Prechorus	*>Label>Prechorus	*>Label>Prechorus
1I	E:maj	wai-	.	88.044	newline	voice	1E 1g# 1b
.	.	-ting	.	.	.	.	.
.	.	for	.	.	.	.	.
.	.	me.	.	.	.	.	.
.	.	.	.	.	.	.	.
.	.	.	.	.	.	.	.
.	.	They're	.	.	.	.	.
=52	=52	=52	=52	=52	=52	=52	=52
1I	E:maj	loo-	.	89.776	.	voice	1E 1g# 1b
.	.	-king	.	.	.	.	.
.	.	for	.	.	.	.	.
.	.	me.	.	.	.	.	.
.	.	.	.	.	.	.	.
.	.	.	.	.	.	.	.
=53	=53	=53	=53	=53	=53	=53	=53
1I	E:maj	eve-	.	91.509	.	voice	1E 1g# 1b
.	.	-ry	.	.	.	.	.
.	.	sin-	.	.	.	.	.
=54	=54	=54	=54	=54	=54	=54	=54
1I	E:maj	_	.	93.242	.	voice	1E 1g# 1b
.	.	-gle	.	.	.	.	.
.	.	night:	.	.	.	.	.
.	.	they're	.	.	.	.	.
=55	=55	=55	=55	=55	=55	=55	=55
2I	E:maj	dri-	.	94.974	newline	voice	2E 2g# 2b
2-VII	D:maj	-ving	.	95.842	.	voice	2D 2f# 2a
=56	=56	=56	=56	=56	=56	=56	=56
2-VI	C:maj	me	.	96.709	.	voice	2C 2e 2g
2-IIIb	G:maj/3	in-	.	97.577	.	voice	2g 2B 2dd
=57	=57	=57	=57	=57	=57	=57	=57
1IV	A:maj	-sane.	E	98.444	.	voice	1A 1cc# 1ee
=58	=58	=58	=58	=58	=58	=58	=58
1IV	A:maj	_	.	100.179	.	voice	1A 1cc# 1ee
.	.	.	.	.	.	.	.
.	.	.	.	.	.	.	.
.	.	Those	.	.	.	.	.
=59	=59	=59	=59	=59	=59	=59	=59
2i	E:min	men	.	101.914	newline	voice	2E 2g 2b
2-VII	D:maj	in-	.	102.793	.	voice	2D 2f# 2a
=60	=60	=60	=60	=60	=60	=60	=60
2-VI	C:maj	-side	.	103.671	.	voice	2C 2e 2g
2-IIIb	G:maj/3	my	.	104.55	.	voice	2g 2B 2dd
.	.	.	.	.	.	.	.
=61	=61	=61	=61	=61	=61	=61	=61
1V	B:maj	brain.	E	105.429	.	voice	1B 1dd# 1ff#
=62	=62	=62	=62	=62	=62	=62	=62
1V	B:maj	_	.	107.186	.	voice	1B 1dd# 1ff#
.	.	.	.	.	.	.	.
=63	=63	=63	=63	=63	=63	=63	=63
*>Letter>D	*>Letter>D	*>Letter>D	*>Letter>D	*>Letter>D	*>Letter>D	*>Letter>D	*>Letter>D
*>Label>Bridge	*>Label>Bridge	*>Label>Bridge	*>Label>Bridge	*>Label>Bridge	*>Label>Bridge	*>Label>Bridge	*>Label>Bridge
2i	E:min	.	.	108.943	newline	voice	2E 2g 2b
.	.	I	F	.	.	.	.
.	.	try	F	.	.	.	.
.	.	to	.	.	.	.	.
2v	B:1	sleep.	G	109.822	.	voice	2B 2dd 2ff#
.	.	They're	H	.	.	.	.
.	.	wide	.	.	.	.	.
.	.	a-	.	.	.	.	.
=64	=64	=64	=64	=64	=64	=64	=64
2-VI	C:1	-wake.	H	110.7	.	voice	2C 2e 2g
.	.	They	H	.	.	.	.
.	.	won't	.	.	.	.	.
.	.	let	.	.	.	.	.
2-III	G:1	me	.	111.579	.	voice	2G 2b 2dd
.	.	a-	.	.	.	.	.
.	.	-lone.	I	.	.	.	.
.	.	_	.	.	.	.	.
.	.	.	.	.	.	.	.
=65	=65	=65	=65	=65	=65	=65	=65
2IV	A:maj	.	.	112.457	.	voice	2A 2cc# 2ee
.	.	They	H	.	.	.	.
.	.	don't	.	.	.	.	.
.	.	get	.	.	.	.	.
2i	E:1	paid	H	113.336	.	voice	2E 2g 2b
.	.	to	.	.	.	.	.
.	.	take	H	.	.	.	.
.	.	va-	H	.	.	.	.
=66	=66	=66	=66	=66	=66	=66	=66
2-iio	F:1	-ca-	H	114.214	.	voice	2F 2a- 2cc-
.	.	-tions	.	.	.	.	.
.	.	or	.	.	.	.	.
.	.	let	.	.	.	.	.
2-VI	C:1	me	G	115.093	.	voice	2C 2e 2g
.	.	a-	.	.	.	.	.
.	.	-lone	I	.	.	.	.
.	.	_	.	.	.	.	.
.	.	.	.	.	.	.	.
=67	=67	=67	=67	=67	=67	=67	=67
2i	E:min	.	.	115.971	newline	voice	2E 2g 2b
.	.	They	H	.	.	.	.
.	.	spy	F	.	.	.	.
.	.	on	.	.	.	.	.
2v	B:1	me.	G	116.853	.	voice	2B 2dd 2ff#
.	.	I	F	.	.	.	.
.	.	try	F	.	.	.	.
.	.	to	.	.	.	.	.
=68	=68	=68	=68	=68	=68	=68	=68
2-VI	C:1	hide.	F	117.735	.	voice	2C 2e 2g
.	.	They	H	.	.	.	.
.	.	won't	.	.	.	.	.
.	.	let	.	.	.	.	.
2-III	G:1	me	G	118.617	.	voice	2G 2b 2dd
.	.	a-	.	.	.	.	.
.	.	-lone	I	.	.	.	.
.	.	_	.	.	.	.	.
.	.	.	.	.	.	.	.
=69	=69	=69	=69	=69	=69	=69	=69
2IV	A:maj	.	.	119.5	.	voice	2A 2cc# 2ee
.	.	They	H	.	.	.	.
.	.	per-	.	.	.	.	.
.	.	-se-	.	.	.	.	.
2i	E:1	-cute	J	120.382	.	voice	2E 2g 2b
.	.	me.	g	.	.	.	.
.	.	They're	.	.	.	.	.
.	.	the	.	.	.	.	.
=70	=70	=70	=70	=70	=70	=70	=70
2-iio	F:1	judge	.	121.264	.	voice	2F 2a- 2cc-
.	.	and	.	.	.	.	.
.	.	ju-	(J	.	.	.	.
.	.	-ry	g)	.	.	.	.
2i	E:1	all	.	122.146	.	voice	2E 2g 2b
.	.	in	.	.	.	.	.
.	.	one.	I	.	.	.	.
.	.	.	.	.	.	.	.
=71	=71	=71	=71	=71	=71	=71	=71
*>Letter>B	*>Letter>B	*>Letter>B	*>Letter>B	*>Letter>B	*>Letter>B	*>Letter>B	*>Letter>B
*>Label>Solo	*>Label>Solo	*>Label>Solo	*>Label>Solo	*>Label>Solo	*>Label>Solo	*>Label>Solo	*>Label>Solo
2ii	F#:min	.	.	123.028	newline	guitar	1F# 1a 1cc#
2vi	C#:min	.	.	123.916	.	guitar	2C# 2e 2g#
=72	=72	=72	=72	=72	=72	=72	=72
2-VII	D:maj	.	.	124.804	.	guitar	1D 1f# 1a
2IV	A:maj	.	.	125.692	.	guitar	2A 2cc# 2ee
=73	=73	=73	=73	=73	=73	=73	=73
2vi	C#:min	.	.	126.581	.	guitar	1C# 1e 1g#
2III	G#:maj	.	.	127.469	.	guitar	2G# 2b# 2dd#
=74	=74	=74	=74	=74	=74	=74	=74
4I	E:maj	.	.	128.357	.	guitar	1E 1g# 1b
2.V	B:maj	.	.	128.801	.	guitar	2B 2dd# 2ff#
=75	=75	=75	=75	=75	=75	=75	=75
2ii	F#:min	.	.	130.133	newline	guitar	1F# 1a 1cc#
2vi	C#:min	.	.	131.005	.	guitar	2C# 2e 2g#
=76	=76	=76	=76	=76	=76	=76	=76
2-VII	D:maj	.	.	131.876	.	guitar	1D 1f# 1a
2IV	A:maj	.	.	132.748	.	guitar	2A 2cc# 2ee
=77	=77	=77	=77	=77	=77	=77	=77
2vi	C#:min	.	.	133.619	.	guitar	1C# 1e 1g#
2III	G#:maj	.	.	134.49	.	guitar	2G# 2b# 2dd#
=78	=78	=78	=78	=78	=78	=78	=78
4I	E:maj	.	.	135.362	.	guitar	1E 1g# 1b
2.V	B:maj	.	.	135.797	.	guitar	2B 2dd# 2ff#
=79	=79	=79	=79	=79	=79	=79	=79
4I	E:maj	.	.	137.105	.	guitar	2.E 2.g# 2.b
2.V	B:maj	.	.	137.54	.	guitar	4B 4dd# 4ff#
.	.	'Cause	.	.	.	.	.
.	.	they're	.	.	.	.	.
=80	=80	=80	=80	=80	=80	=80	=80
*>Letter>C	*>Letter>C	*>Letter>C	*>Letter>C	*>Letter>C	*>Letter>C	*>Letter>C	*>Letter>C
*>Label>Prechorus	*>Label>Prechorus	*>Label>Prechorus	*>Label>Prechorus	*>Label>Prechorus	*>Label>Prechorus	*>Label>Prechorus	*>Label>Prechorus
1I	E:maj	wai-	.	138.847	newline	voice	1E 1g# 1b
.	.	-ting	.	.	.	.	.
.	.	for	.	.	.	.	.
.	.	me.	.	.	.	.	.
.	.	.	.	.	.	.	.
.	.	.	.	.	.	.	.
.	.	They're	.	.	.	.	.
=81	=81	=81	=81	=81	=81	=81	=81
1I	E:maj	loo-	.	139.195	.	voice	1E 1g# 1b
.	.	-king	.	.	.	.	.
.	.	for	.	.	.	.	.
.	.	me.	.	.	.	.	.
.	.	.	.	.	.	.	.
.	.	.	.	.	.	.	.
=82	=82	=82	=82	=82	=82	=82	=82
1I	E:maj	eve-	.	141.628	.	voice	1E 1g# 1b
.	.	-ry	.	.	.	.	.
.	.	sin-	.	.	.	.	.
=83	=83	=83	=83	=83	=83	=83	=83
1I	E:maj	_	.	143.018	.	voice	1E 1g# 1b
.	.	-gle	.	.	.	.	.
.	.	night:	.	.	.	.	.
.	.	they're	.	.	.	.	.
=84	=84	=84	=84	=84	=84	=84	=84
2I	E:maj	dri-	.	145.798	newline	voice	2E 2g# 2b
2-VII	D:maj	-ving	.	146.675	.	voice	2D 2f# 2a
=85	=85	=85	=85	=85	=85	=85	=85
2-VI	C:maj	me	.	147.551	.	voice	2C 2e 2g
2-IIIb	G:maj/3	in-	.	148.427	.	voice	2g 2B 2dd
=86	=86	=86	=86	=86	=86	=86	=86
1IV	A:maj	-sane.	E	149.304	.	voice	1A 1cc# 1ee
=87	=87	=87	=87	=87	=87	=87	=87
1iv	A:min	_	.	151.056	.	voice	1A 1cc 1ee
.	.	.	.	.	.	.	.
.	.	.	.	.	.	.	.
.	.	Those	.	.	.	.	.
=88	=88	=88	=88	=88	=88	=88	=88
2i	E:min	men	.	152.809	newline	voice	2E 2g 2b
2-VII	D:maj	in-	.	153.68	.	voice	2D 2f# 2a
=89	=89	=89	=89	=89	=89	=89	=89
2-VI	C:maj	-side	.	154.552	.	voice	2C 2e 2g
2-IIIb	G:maj/3	my	.	155.424	.	voice	2g 2B 2dd
.	.	.	.	.	.	.	.
=90	=90	=90	=90	=90	=90	=90	=90
*>Letter>E	*>Letter>E	*>Letter>E	*>Letter>E	*>Letter>E	*>Letter>E	*>Letter>E	*>Letter>E
*>Label>Interlude	*>Label>Interlude	*>Label>Interlude	*>Label>Interlude	*>Label>Interlude	*>Label>Interlude	*>Label>Interlude	*>Label>Interlude
1V	B:maj	brain.	E	156.296	newline	voice	1B 1dd# 1ff#
=91	=91	=91	=91	=91	=91	=91	=91
1ic	E:min/5	_	.	158.021	.	voice	1e 1g 1B
=92	=92	=92	=92	=92	=92	=92	=92
1#iof	F:dim/#4	_	.	159.747	.	voice	1E# 1g# 1b
=93	=93	=93	=93	=93	=93	=93	=93
1V7	B:7	_	.	161.472	.	voice	1B 1dd# 1ff# 1aa
=94	=94	=94	=94	=94	=94	=94	=94
2VIIg	D#:maj/b6	_	.	163.197	newline	guitar	1D# 1f## 1a#
2V	B:maj6	.	.	164.038	.	guitar	2B 2dd# 2ff#
=95	=95	=95	=95	=95	=95	=95	=95
1-viod	C:dim/7	_	.	164.879	.	guitar	1c 1e- 1g-
=96	=96	=96	=96	=96	=96	=96	=96
1V	B:maj	_	.	166.561	.	guitar	1B 1dd# 1ff#
=97	=97	=97	=97	=97	=97	=97	=97
1V	B:maj	.	.	168.243	.	guitar	1B 1dd# 1ff#
=98	=98	=98	=98	=98	=98	=98	=98
1ii7	F#:(b5,b7,3)	.	.	169.925	newline	synthesizer	1F# 1a 1cc# 1ee
=99	=99	=99	=99	=99	=99	=99	=99
1-III7	G:maj7	.	.	171.646	.	synthesizer	1G 1b 1dd 1ff#
=100	=100	=100	=100	=100	=100	=100	=100
*M3/8	*M3/8	*	*	*M3/8	*M3/8	*M3/8	*
4.iii	G#:min	.	.	173.366	.	synthesizer	4.G# 4.b 4.dd#
=101	=101	=101	=101	=101	=101	=101	=101
4.III	G#:maj	.	.	174.011	.	synthesizer	4.G# 4.b# 4.dd#
=102	=102	=102	=102	=102	=102	=102	=102
*M4/4	*M4/4	*	*	*M4/4	*M4/4	*M4/4	*
1#Vm7	B#:(b5,b7,3)	.	.	174.656	newline	synthesizer	1B# 1dd## 1ff## 1aa
=103	=103	=103	=103	=103	=103	=103	=103
1VI	C#:maj	.	.	176.38	.	synthesizer	1C# 1e# 1g#
=104	=104	=104	=104	=104	=104	=104	=104
*M3/8	*M3/8	*	*	*M3/8	*M3/8	*M3/8	*
4.-VIIm7	D:7(b9)	.	.	178.103	.	synthesizer	4.D 4.f# 4.a 4.cc#
=105	=105	=105	=105	=105	=105	=105	=105
4.-VIIm7	D:7(b9)	.	.	.	.	synthesizer	4.D 4.f# 4.a 4.cc#
=106	=106	=106	=106	=106	=106	=106	=106
*M4/4	*M4/4	*	*	*M4/4	*M4/4	*M4/4	*
1viioD7	D#:(b5,b7,3)	.	.	179.396	newline	synthesizer	1D# 1f# 1a 1cc
=107	=107	=107	=107	=107	=107	=107	=107
1-IIIm7	G:(b5,b7,3)	.	.	181.087	.	synthesizer	1G 1b 1dd 1ff#
=108	=108	=108	=108	=108	=108	=108	=108
*M3/8	*M3/8	*	*	*M3/8	*M3/8	*M3/8	*
4.IIIM7	G#:maj7	.	.	182.778	.	synthesizer	4.G# 4.b# 4.dd# 4.ff#
=109	=109	=109	=109	=109	=109	=109	=109
4.iv	A:min	.	.	183.412	.	synthesizer	4.A 4.cc 4.ee
=110	=110	=110	=110	=110	=110	=110	=110
*M4/4	*M4/4	*	*	*M4/4	*M4/4	*M4/4	*
1-V7	B-:maj7	.	.	184.046	newline	synthesizer	1B- 1dd 1ff 1aa
=111	=111	=111	=111	=111	=111	=111	=111
1ivm7	A:(b5,b7,3)	.	.	185.744	.	synthesizer	1A 1cc 1ee 1gg#
=112	=112	=112	=112	=112	=112	=112	=112
1-V7	B-:maj7	.	.	187.441	.	synthesizer	1B- 1dd 1ff 1aa
=113	=113	=113	=113	=113	=113	=113	=113
1ivm7	A:(b5,b7,3)	.	.	189.139	.	synthesizer	1A 1cc 1ee 1gg#
=114	=114	=114	=114	=114	=114	=114	=114
1-V7	B-:maj7	.	.	190.837	newline	synthesizer	1B- 1dd 1ff 1aa
=115	=115	=115	=115	=115	=115	=115	=115
1ivm7	A:(b5,b7,3)	.	.	192.527	.	synthesizer	1A 1cc 1ee 1gg#
=116	=116	=116	=116	=116	=116	=116	=116
1-V7	B-:maj7	.	.	194.217	.	synthesizer	1B- 1dd 1ff 1aa
=117	=117	=117	=117	=117	=117	=117	=117
1ivm7	A:(b5,b7,3)	.	.	195.907	.	synthesizer	1A 1cc 1ee 1gg#
.	.	.	.	.	.	.	.
.	.	The	.	.	.	.	.
=118	=118	=118	=118	=118	=118	=118	=118
*>Letter>A	*>Letter>A	*>Letter>A	*>Letter>A	*>Letter>A	*>Letter>A	*>Letter>A	*>Letter>A
*>Label>Chorus	*>Label>Chorus	*>Label>Chorus	*>Label>Chorus	*>Label>Chorus	*>Label>Chorus	*>Label>Chorus	*>Label>Chorus
1I	E:maj	dream	.	197.598	newline	voice	1E 1g# 1b
.	.	po-	.	.	.	.	.
.	.	-lice.	.	.	.	.	.
.	.	they	.	.	.	.	.
.	.	live	.	.	.	.	.
.	.	in-	.	.	.	.	.
=119	=119	=119	=119	=119	=119	=119	=119
2V	B:maj	-side	.	199.353	.	voice	3...B 3...dd# 3...ff#
.	.	_	.	.	.	.	.
.	.	of	.	.	.	.	.
.	.	my	.	.	.	.	.
.	.	head.	A	.	.	.	.
2IV	A:maj	.	.	200.231	.	voice	4.A 4.cc# 4.ee
.	.	.	.	.	.	.	.
.	.	.	.	.	.	.	.
.	.	The	.	.	.	.	.
=120	=120	=120	=120	=120	=120	=120	=120
1I	E:maj	dream	.	201.109	.	voice	1E 1g# 1b
.	.	po-	.	.	.	.	.
.	.	-lice.	.	.	.	.	.
.	.	they	.	.	.	.	.
.	.	come	.	.	.	.	.
.	.	to	.	.	.	.	.
=121	=121	=121	=121	=121	=121	=121	=121
2V	B:maj	me	.	202.864	.	voice	3...B 3...dd# 3...ff#
.	.	_	.	.	.	.	.
.	.	in	.	.	.	.	.
.	.	my	.	.	.	.	.
.	.	bed.	A	.	.	.	.
2IV	A:maj	.	.	203.742	.	voice	4.A 4.cc# 4.ee
.	.	.	.	.	.	.	.
.	.	.	.	.	.	.	.
.	.	The	.	.	.	.	.
=122	=122	=122	=122	=122	=122	=122	=122
1I	E:maj	dream	.	204.62	newline	voice	1E 1g# 1b
.	.	po-	.	.	.	.	.
.	.	-lice.	.	.	.	.	.
.	.	they're	.	.	.	.	.
.	.	co-	.	.	.	.	.
.	.	-ming	.	.	.	.	.
=123	=123	=123	=123	=123	=123	=123	=123
2V	B:maj	to	.	206.359	.	voice	2B 2dd# 2ff#
.	.	_	.	.	.	.	.
.	.	a-	.	.	.	.	.
.	.	-rrest	A	.	.	.	.
2IV	A:maj	me.	.	207.228	.	voice	2A 2cc# 2ee
.	.	.	.	.	.	.	.
.	.	The	.	.	.	.	.
=124	=124	=124	=124	=124	=124	=124	=124
1I	E:maj	dream	.	208.098	.	voice	1E 1g# 1b
.	.	po-	.	.	.	.	.
.	.	-lice.	.	.	.	.	.
.	.	.	.	.	.	.	.
.	.	.	.	.	.	.	.
=125	=125	=125	=125	=125	=125	=125	=125
2V	B:maj	.	.	209.837	.	voice	2B 2dd# 2ff#
2IV	A:maj	.	.	210.706	.	voice	2A 2cc# 2ee
.	.	The	.	.	.	.	.
=126	=126	=126	=126	=126	=126	=126	=126
*>Label>>Fadeout	*>Label>>Fadeout	*>Label>>Fadeout	*>Label>>Fadeout	*>Label>>Fadeout	*>Label>>Fadeout	*>Label>>Fadeout	*>Label>>Fadeout
1I	E:maj	dream	.	211.576	newline	voice	1E 1g# 1b
.	.	po-	.	.	.	.	.
.	.	-lice.	.	.	.	.	.
.	.	.	.	.	.	.	.
.	.	.	.	.	.	.	.
=127	=127	=127	=127	=127	=127	=127	=127
2V	B:maj	.	.	213.306	.	voice	2B 2dd# 2ff#
2IV	A:maj	.	.	214.171	.	voice	2A 2cc# 2ee
.	.	The	.	.	.	.	.
=128	=128	=128	=128	=128	=128	=128	=128
1I	E:maj	dream	.	215.036	.	voice	1E 1g# 1b
.	.	po-	.	.	.	.	.
.	.	-lice.	.	.	.	.	.
.	.	.	.	.	.	.	.
.	.	.	.	.	.	.	.
=129	=129	=129	=129	=129	=129	=129	=129
2V	B:maj	.	.	216.766	.	voice	2B 2dd# 2ff#
2IV	A:maj	.	.	217.631	.	voice	2A 2cc# 2ee
.	.	The	.	.	.	.	.
=130	=130	=130	=130	=130	=130	=130	=130
1I	E:maj	dream	.	218.497	newline	voice	1E 1g# 1b
.	.	po-	.	.	.	.	.
.	.	-lice.	.	.	.	.	.
.	.	.	.	.	.	.	.
.	.	.	.	.	.	.	.
=131	=131	=131	=131	=131	=131	=131	=131
2V	B:maj	.	.	220.242	.	voice	2B 2dd# 2ff#
2IV	A:maj	.	.	221.115	.	voice	2A 2cc# 2ee
.	.	The	.	.	.	.	.
=132	=132	=132	=132	=132	=132	=132	=132
1I	E:maj	dream	.	221.987	.	voice	1E 1g# 1b
.	.	po-	.	.	.	.	.
.	.	-lice.	.	.	.	.	.
.	.	.	.	.	.	.	.
.	.	.	.	.	.	.	.
=133	=133	=133	=133	=133	=133	=133	=133
2V	B:maj	.	.	223.733	.	voice	2B 2dd# 2ff#
2IV	A:maj	.	.	224.605	.	voice	2A 2cc# 2ee
.	.	The	.	.	.	.	.
=134	=134	=134	=134	=134	=134	=134	=134
1I	E:maj	dream	.	225.478	newline	voice	1E 1g# 1b
.	.	po-	.	.	.	.	.
.	.	-lice.	.	.	.	.	.
.	.	.	.	.	.	.	.
.	.	.	.	.	.	.	.
=135	=135	=135	=135	=135	=135	=135	=135
2V	B:maj	.	.	227.016	.	voice	1B 1dd# 1ff#
2IV	A:maj	.	.	227.785	.	voice	2A 2cc# 2ee
1r;	N	.	.	228.554	.	r	1r;
1r;	N	.	.	231.314	.	r	1r;
*-	*-	*-	*-	*-	*-	*-	*-
!!!BillboardChartDate: 1979/11/10, 1979/11/17
!!!BillboardPeak: 26, 26
!!!BillboardWeeksOnChart: 10, 10
!!!COC: Cheap Trick
!!!ENC: Nathaniel Condit-Schultz
!!!EST: Awating manual error checking and editing.
!!!OTL: Dream Police
!!!RDF**harte: Chris Harte's syntax, used by MIREX
!!!RDF**harmony: **recip + pitch class of root + harmonic quality
!!!RDF**leadinstrument: original McGill primary instrumentation annotation
!!!RDF**phrase: newline = linebreak in original McGill transcription
!!!RDF**timestamp: McGill audio timestamp in seconds
!!!RDT: 2017/01/12/
!!!SampleActualRank: 29, 27
!!!SampleID#: 317, 323
!!!SampleTargetRank: 28, 27
!!!MBID: 3e4c7160-3fb9-4e04-88fa-64ad1e21071f
